documentation/public/assets/images/07-tabs-visual.svg

<svg width="672" height="108" viewBox="0 0 672 108" fill="none" xmlns="http://www.w3.org/2000/svg">
<rect width="672" height="108" fill="#F6F6F6"/>
<rect width="214" height="44" transform="translate(229 32)" fill="white"/>
<line x1="229" y1="75.5" x2="443" y2="75.5" stroke="#EBEBEB"/>
<path d="M245.636 50.1307V48.3636H254.92V50.1307H251.324V60H249.233V50.1307H245.636ZM257.943 60.1761C257.39 60.1761 256.892 60.0777 256.449 59.8807C256.009 59.6799 255.661 59.3845 255.403 58.9943C255.15 58.6042 255.023 58.1231 255.023 57.5511C255.023 57.0587 255.114 56.6515 255.295 56.3295C255.477 56.0076 255.725 55.75 256.04 55.5568C256.354 55.3636 256.708 55.2178 257.102 55.1193C257.5 55.017 257.911 54.9432 258.335 54.8977C258.847 54.8447 259.261 54.7973 259.58 54.7557C259.898 54.7102 260.129 54.642 260.273 54.5511C260.42 54.4564 260.494 54.3106 260.494 54.1136V54.0795C260.494 53.6515 260.367 53.3201 260.114 53.0852C259.86 52.8504 259.494 52.733 259.017 52.733C258.513 52.733 258.114 52.8428 257.818 53.0625C257.527 53.2822 257.33 53.5417 257.227 53.8409L255.307 53.5682C255.458 53.0379 255.708 52.5947 256.057 52.2386C256.405 51.8788 256.831 51.6098 257.335 51.4318C257.839 51.25 258.396 51.1591 259.006 51.1591C259.426 51.1591 259.845 51.2083 260.261 51.3068C260.678 51.4053 261.059 51.5682 261.403 51.7955C261.748 52.0189 262.025 52.3239 262.233 52.7102C262.445 53.0966 262.551 53.5795 262.551 54.1591V60H260.574V58.8011H260.506C260.381 59.0436 260.205 59.2708 259.977 59.483C259.754 59.6913 259.472 59.8598 259.131 59.9886C258.794 60.1136 258.398 60.1761 257.943 60.1761ZM258.477 58.6648C258.89 58.6648 259.248 58.5833 259.551 58.4205C259.854 58.2538 260.087 58.0341 260.25 57.7614C260.417 57.4886 260.5 57.1913 260.5 56.8693V55.8409C260.436 55.8939 260.326 55.9432 260.17 55.9886C260.019 56.0341 259.848 56.0739 259.659 56.108C259.47 56.142 259.282 56.1723 259.097 56.1989C258.911 56.2254 258.75 56.2481 258.614 56.267C258.307 56.3087 258.032 56.3769 257.79 56.4716C257.547 56.5663 257.356 56.6989 257.216 56.8693C257.076 57.036 257.006 57.2519 257.006 57.517C257.006 57.8958 257.144 58.1818 257.42 58.375C257.697 58.5682 258.049 58.6648 258.477 58.6648ZM264.71 60V48.3636H266.767V52.7159H266.852C266.958 52.5038 267.108 52.2784 267.301 52.0398C267.494 51.7973 267.756 51.5909 268.085 51.4205C268.415 51.2462 268.835 51.1591 269.347 51.1591C270.021 51.1591 270.629 51.3314 271.17 51.6761C271.716 52.017 272.148 52.5227 272.466 53.1932C272.788 53.8598 272.949 54.678 272.949 55.6477C272.949 56.6061 272.792 57.4205 272.477 58.0909C272.163 58.7614 271.735 59.2727 271.193 59.625C270.652 59.9773 270.038 60.1534 269.352 60.1534C268.852 60.1534 268.438 60.0701 268.108 59.9034C267.778 59.7367 267.513 59.536 267.312 59.3011C267.116 59.0625 266.962 58.8371 266.852 58.625H266.733V60H264.71ZM266.727 55.6364C266.727 56.2008 266.807 56.6951 266.966 57.1193C267.129 57.5436 267.362 57.875 267.665 58.1136C267.972 58.3485 268.343 58.4659 268.778 58.4659C269.233 58.4659 269.614 58.3447 269.92 58.1023C270.227 57.8561 270.458 57.5208 270.614 57.0966C270.773 56.6686 270.852 56.1818 270.852 55.6364C270.852 55.0947 270.775 54.6136 270.619 54.1932C270.464 53.7727 270.233 53.4432 269.926 53.2045C269.619 52.9659 269.237 52.8466 268.778 52.8466C268.339 52.8466 267.966 52.9621 267.659 53.1932C267.352 53.4242 267.119 53.7481 266.96 54.1648C266.805 54.5814 266.727 55.072 266.727 55.6364ZM279.408 48.3636V60H277.3V50.4148H277.232L274.51 52.1534V50.2216L277.402 48.3636H279.408Z" fill="#0F67F5"/>
<line x1="229" y1="75" x2="298" y2="75" stroke="#0F67F5" stroke-width="2"/>
<path d="M314.773 49.6136V48.3636H323.5V49.6136H319.841V60H318.432V49.6136H314.773ZM326.874 60.2045C326.321 60.2045 325.819 60.1004 325.368 59.892C324.917 59.6799 324.559 59.375 324.294 58.9773C324.029 58.5758 323.896 58.0909 323.896 57.5227C323.896 57.0227 323.995 56.6174 324.192 56.3068C324.389 55.9924 324.652 55.7462 324.982 55.5682C325.311 55.3902 325.675 55.2576 326.072 55.1705C326.474 55.0795 326.877 55.0076 327.283 54.9545C327.813 54.8864 328.243 54.8352 328.572 54.8011C328.906 54.7633 329.148 54.7008 329.3 54.6136C329.455 54.5265 329.533 54.375 329.533 54.1591V54.1136C329.533 53.553 329.379 53.1174 329.072 52.8068C328.769 52.4962 328.309 52.3409 327.692 52.3409C327.052 52.3409 326.55 52.4811 326.186 52.7614C325.822 53.0417 325.567 53.3409 325.419 53.6591L324.146 53.2045C324.374 52.6742 324.677 52.2614 325.055 51.9659C325.438 51.6667 325.855 51.4583 326.305 51.3409C326.76 51.2197 327.207 51.1591 327.646 51.1591C327.927 51.1591 328.249 51.1932 328.612 51.2614C328.98 51.3258 329.334 51.4602 329.675 51.6648C330.019 51.8693 330.305 52.178 330.533 52.5909C330.76 53.0038 330.874 53.5568 330.874 54.25V60H329.533V58.8182H329.464C329.374 59.0076 329.222 59.2102 329.01 59.4261C328.798 59.642 328.516 59.8258 328.163 59.9773C327.811 60.1288 327.381 60.2045 326.874 60.2045ZM327.078 59C327.608 59 328.055 58.8958 328.419 58.6875C328.786 58.4792 329.063 58.2102 329.249 57.8807C329.438 57.5511 329.533 57.2045 329.533 56.8409V55.6136C329.476 55.6818 329.351 55.7443 329.158 55.8011C328.968 55.8542 328.749 55.9015 328.499 55.9432C328.252 55.9811 328.012 56.0152 327.777 56.0455C327.546 56.072 327.358 56.0947 327.214 56.1136C326.866 56.1591 326.54 56.233 326.237 56.3352C325.938 56.4337 325.696 56.5833 325.51 56.7841C325.328 56.9811 325.237 57.25 325.237 57.5909C325.237 58.0568 325.41 58.4091 325.754 58.6477C326.103 58.8826 326.544 59 327.078 59ZM333.503 60V48.3636H334.844V52.6591H334.957C335.056 52.5076 335.192 52.3144 335.366 52.0795C335.545 51.8409 335.798 51.6288 336.128 51.4432C336.461 51.2538 336.912 51.1591 337.48 51.1591C338.215 51.1591 338.863 51.3428 339.423 51.7102C339.984 52.0777 340.421 52.5985 340.736 53.2727C341.05 53.947 341.207 54.7424 341.207 55.6591C341.207 56.5833 341.05 57.3845 340.736 58.0625C340.421 58.7367 339.986 59.2595 339.429 59.6307C338.872 59.9981 338.23 60.1818 337.503 60.1818C336.942 60.1818 336.493 60.089 336.156 59.9034C335.819 59.714 335.56 59.5 335.378 59.2614C335.196 59.0189 335.056 58.8182 334.957 58.6591H334.798V60H333.503ZM334.821 55.6364C334.821 56.2955 334.918 56.8769 335.111 57.3807C335.304 57.8807 335.586 58.2727 335.957 58.5568C336.329 58.8371 336.783 58.9773 337.321 58.9773C337.882 58.9773 338.349 58.8295 338.724 58.5341C339.103 58.2348 339.387 57.8333 339.577 57.3295C339.77 56.822 339.866 56.2576 339.866 55.6364C339.866 55.0227 339.772 54.4697 339.582 53.9773C339.397 53.4811 339.115 53.089 338.736 52.8011C338.361 52.5095 337.889 52.3636 337.321 52.3636C336.776 52.3636 336.317 52.5019 335.946 52.7784C335.575 53.0511 335.295 53.4337 335.105 53.9261C334.916 54.4148 334.821 54.9848 334.821 55.6364ZM343.236 60V58.9773L347.077 54.7727C347.527 54.2803 347.899 53.8523 348.19 53.4886C348.482 53.1212 348.698 52.7765 348.838 52.4545C348.982 52.1288 349.054 51.7879 349.054 51.4318C349.054 51.0227 348.955 50.6686 348.759 50.3693C348.565 50.0701 348.3 49.839 347.963 49.6761C347.626 49.5133 347.247 49.4318 346.827 49.4318C346.38 49.4318 345.99 49.5246 345.656 49.7102C345.327 49.892 345.071 50.1477 344.889 50.4773C344.711 50.8068 344.622 51.1932 344.622 51.6364H343.281C343.281 50.9545 343.438 50.3561 343.753 49.8409C344.067 49.3258 344.495 48.9242 345.037 48.6364C345.582 48.3485 346.194 48.2045 346.872 48.2045C347.554 48.2045 348.158 48.3485 348.685 48.6364C349.211 48.9242 349.624 49.3125 349.923 49.8011C350.223 50.2898 350.372 50.8333 350.372 51.4318C350.372 51.8598 350.295 52.2784 350.139 52.6875C349.988 53.0928 349.723 53.5455 349.344 54.0455C348.969 54.5417 348.448 55.1477 347.781 55.8636L345.168 58.6591V58.75H350.577V60H343.236Z" fill="#333333"/>
<path d="M384.773 49.6136V48.3636H393.5V49.6136H389.841V60H388.432V49.6136H384.773ZM396.874 60.2045C396.321 60.2045 395.819 60.1004 395.368 59.892C394.917 59.6799 394.559 59.375 394.294 58.9773C394.029 58.5758 393.896 58.0909 393.896 57.5227C393.896 57.0227 393.995 56.6174 394.192 56.3068C394.389 55.9924 394.652 55.7462 394.982 55.5682C395.311 55.3902 395.675 55.2576 396.072 55.1705C396.474 55.0795 396.877 55.0076 397.283 54.9545C397.813 54.8864 398.243 54.8352 398.572 54.8011C398.906 54.7633 399.148 54.7008 399.3 54.6136C399.455 54.5265 399.533 54.375 399.533 54.1591V54.1136C399.533 53.553 399.379 53.1174 399.072 52.8068C398.769 52.4962 398.309 52.3409 397.692 52.3409C397.052 52.3409 396.55 52.4811 396.186 52.7614C395.822 53.0417 395.567 53.3409 395.419 53.6591L394.146 53.2045C394.374 52.6742 394.677 52.2614 395.055 51.9659C395.438 51.6667 395.855 51.4583 396.305 51.3409C396.76 51.2197 397.207 51.1591 397.646 51.1591C397.927 51.1591 398.249 51.1932 398.612 51.2614C398.98 51.3258 399.334 51.4602 399.675 51.6648C400.019 51.8693 400.305 52.178 400.533 52.5909C400.76 53.0038 400.874 53.5568 400.874 54.25V60H399.533V58.8182H399.464C399.374 59.0076 399.222 59.2102 399.01 59.4261C398.798 59.642 398.516 59.8258 398.163 59.9773C397.811 60.1288 397.381 60.2045 396.874 60.2045ZM397.078 59C397.608 59 398.055 58.8958 398.419 58.6875C398.786 58.4792 399.063 58.2102 399.249 57.8807C399.438 57.5511 399.533 57.2045 399.533 56.8409V55.6136C399.476 55.6818 399.351 55.7443 399.158 55.8011C398.968 55.8542 398.749 55.9015 398.499 55.9432C398.252 55.9811 398.012 56.0152 397.777 56.0455C397.546 56.072 397.358 56.0947 397.214 56.1136C396.866 56.1591 396.54 56.233 396.237 56.3352C395.938 56.4337 395.696 56.5833 395.51 56.7841C395.328 56.9811 395.237 57.25 395.237 57.5909C395.237 58.0568 395.41 58.4091 395.754 58.6477C396.103 58.8826 396.544 59 397.078 59ZM403.503 60V48.3636H404.844V52.6591H404.957C405.056 52.5076 405.192 52.3144 405.366 52.0795C405.545 51.8409 405.798 51.6288 406.128 51.4432C406.461 51.2538 406.912 51.1591 407.48 51.1591C408.215 51.1591 408.863 51.3428 409.423 51.7102C409.984 52.0777 410.421 52.5985 410.736 53.2727C411.05 53.947 411.207 54.7424 411.207 55.6591C411.207 56.5833 411.05 57.3845 410.736 58.0625C410.421 58.7367 409.986 59.2595 409.429 59.6307C408.872 59.9981 408.23 60.1818 407.503 60.1818C406.942 60.1818 406.493 60.089 406.156 59.9034C405.819 59.714 405.56 59.5 405.378 59.2614C405.196 59.0189 405.056 58.8182 404.957 58.6591H404.798V60H403.503ZM404.821 55.6364C404.821 56.2955 404.918 56.8769 405.111 57.3807C405.304 57.8807 405.586 58.2727 405.957 58.5568C406.329 58.8371 406.783 58.9773 407.321 58.9773C407.882 58.9773 408.349 58.8295 408.724 58.5341C409.103 58.2348 409.387 57.8333 409.577 57.3295C409.77 56.822 409.866 56.2576 409.866 55.6364C409.866 55.0227 409.772 54.4697 409.582 53.9773C409.397 53.4811 409.115 53.089 408.736 52.8011C408.361 52.5095 407.889 52.3636 407.321 52.3636C406.776 52.3636 406.317 52.5019 405.946 52.7784C405.575 53.0511 405.295 53.4337 405.105 53.9261C404.916 54.4148 404.821 54.9848 404.821 55.6364ZM421.668 60.1591C420.918 60.1591 420.249 60.0303 419.662 59.7727C419.079 59.5152 418.615 59.1572 418.27 58.6989C417.929 58.2367 417.743 57.7008 417.713 57.0909H419.145C419.175 57.4659 419.304 57.7898 419.531 58.0625C419.759 58.3314 420.056 58.5398 420.423 58.6875C420.791 58.8352 421.198 58.9091 421.645 58.9091C422.145 58.9091 422.588 58.822 422.974 58.6477C423.361 58.4735 423.664 58.2311 423.884 57.9205C424.103 57.6098 424.213 57.25 424.213 56.8409C424.213 56.4129 424.107 56.036 423.895 55.7102C423.683 55.3807 423.372 55.1231 422.963 54.9375C422.554 54.7519 422.054 54.6591 421.463 54.6591H420.531V53.4091H421.463C421.925 53.4091 422.33 53.3258 422.679 53.1591C423.031 52.9924 423.306 52.7576 423.503 52.4545C423.704 52.1515 423.804 51.7955 423.804 51.3864C423.804 50.9924 423.717 50.6496 423.543 50.358C423.368 50.0663 423.122 49.839 422.804 49.6761C422.49 49.5133 422.118 49.4318 421.69 49.4318C421.289 49.4318 420.91 49.5057 420.554 49.6534C420.202 49.7973 419.914 50.0076 419.69 50.2841C419.467 50.5568 419.346 50.8864 419.327 51.2727H417.963C417.986 50.6629 418.17 50.1288 418.514 49.6705C418.859 49.2083 419.31 48.8485 419.866 48.5909C420.427 48.3333 421.043 48.2045 421.713 48.2045C422.433 48.2045 423.05 48.3504 423.565 48.642C424.08 48.9299 424.476 49.3106 424.753 49.7841C425.029 50.2576 425.168 50.7689 425.168 51.3182C425.168 51.9735 424.995 52.5322 424.651 52.9943C424.31 53.4564 423.846 53.7765 423.259 53.9545V54.0455C423.993 54.1667 424.567 54.4792 424.98 54.983C425.393 55.483 425.599 56.1023 425.599 56.8409C425.599 57.4735 425.427 58.0417 425.082 58.5455C424.741 59.0455 424.276 59.4394 423.685 59.7273C423.094 60.0152 422.421 60.1591 421.668 60.1591Z" fill="#9E9E9E"/>
</svg>

<svg width="672" height="108" fill="none" xmlns="http://www.w3.org/2000/svg"><path fill="#F6F6F6" d="M0 0h672v108H0z"/><path fill="#fff" d="M229 32h214v44H229z"/><path stroke="#EBEBEB" d="M229 75.5h214"/><path d="M245.64 50.13v-1.77h9.28v1.77h-3.6V60h-2.09v-9.87h-3.6Zm12.3 10.05c-.55 0-1.05-.1-1.5-.3a2.5 2.5 0 0 1-1.04-.89 2.6 2.6 0 0 1-.38-1.44c0-.5.1-.9.27-1.22.19-.32.44-.58.75-.77.31-.2.67-.34 1.06-.44.4-.1.81-.18 1.23-.22l1.25-.14c.32-.05.55-.12.7-.2.14-.1.21-.25.21-.45v-.03c0-.43-.12-.76-.38-1-.25-.23-.62-.35-1.1-.35-.5 0-.9.11-1.2.33-.28.22-.48.48-.58.78l-1.92-.27a3.06 3.06 0 0 1 2.02-2.14 5.43 5.43 0 0 1 2.93-.13c.42.1.8.27 1.14.5.35.22.63.52.83.91.21.39.32.87.32 1.45V60h-1.98v-1.2h-.06a2.5 2.5 0 0 1-1.38 1.19c-.34.12-.73.19-1.19.19Zm.54-1.52c.41 0 .77-.08 1.07-.24.3-.17.54-.39.7-.66.17-.27.25-.57.25-.9v-1.02a.96.96 0 0 1-.33.15l-.51.12a16.2 16.2 0 0 1-1.05.16c-.3.04-.58.1-.82.2s-.43.23-.57.4a.97.97 0 0 0-.21.65c0 .38.13.66.41.85.28.2.63.3 1.06.3ZM264.7 60V48.36h2.06v4.36h.08c.1-.22.26-.44.45-.68.2-.24.46-.45.78-.62.34-.17.75-.26 1.27-.26a3.32 3.32 0 0 1 3.12 2.03c.32.67.48 1.49.48 2.46 0 .96-.16 1.77-.47 2.44a3.3 3.3 0 0 1-3.13 2.06 2.53 2.53 0 0 1-2.04-.85c-.2-.24-.35-.46-.46-.67h-.12V60h-2.02Zm2.02-4.36c0 .56.08 1.06.24 1.48.16.42.4.76.7 1 .3.23.67.35 1.1.35.46 0 .84-.13 1.15-.37.3-.24.54-.58.7-1 .15-.43.23-.92.23-1.46 0-.55-.08-1.03-.23-1.45a2.16 2.16 0 0 0-.7-.99c-.3-.23-.68-.35-1.14-.35-.44 0-.81.11-1.12.34-.3.23-.54.56-.7.97-.15.42-.23.91-.23 1.48Zm12.68-7.28V60h-2.11v-9.59h-.07l-2.72 1.74v-1.93l2.9-1.86h2Z" fill="#0F67F5"/><path stroke="#0F67F5" stroke-width="2" d="M229 75h69"/><path d="M314.77 49.61v-1.25h8.73v1.25h-3.66V60h-1.4V49.61h-3.67Zm12.1 10.6a3.5 3.5 0 0 1-1.5-.32 2.67 2.67 0 0 1-1.08-.91c-.26-.4-.4-.89-.4-1.46 0-.5.1-.9.3-1.21.2-.32.46-.56.8-.74.32-.18.69-.31 1.08-.4.4-.09.8-.16 1.21-.22l1.3-.15c.33-.04.57-.1.72-.19.15-.08.23-.23.23-.45v-.05c0-.56-.15-1-.46-1.3-.3-.31-.76-.47-1.38-.47a2.39 2.39 0 0 0-2.27 1.32l-1.27-.46a3.07 3.07 0 0 1 2.16-1.86 5.2 5.2 0 0 1 2.3-.08c.37.07.72.2 1.06.4.35.2.63.52.86.93.23.41.34.97.34 1.66V60h-1.34v-1.18h-.07a2.62 2.62 0 0 1-1.3 1.16c-.35.15-.78.22-1.29.22Zm.2-1.21c.54 0 .99-.1 1.35-.31a2.13 2.13 0 0 0 1.11-1.85v-1.23c-.05.07-.18.13-.37.2-.2.04-.41.1-.66.13a30.34 30.34 0 0 1-1.29.17c-.34.05-.67.12-.97.23-.3.1-.54.24-.73.44-.18.2-.27.47-.27.81 0 .47.17.82.51 1.06.35.23.8.35 1.33.35Zm6.43 1V48.36h1.34v4.3h.12l.4-.58c.19-.24.44-.45.77-.64s.78-.28 1.35-.28a3.46 3.46 0 0 1 3.26 2.11c.31.68.47 1.47.47 2.39 0 .92-.16 1.72-.47 2.4a3.42 3.42 0 0 1-3.23 2.12 2.8 2.8 0 0 1-1.35-.28 2.5 2.5 0 0 1-.78-.64 8.77 8.77 0 0 1-.42-.6h-.16V60h-1.3Zm1.32-4.36c0 .66.1 1.24.3 1.74.18.5.47.9.84 1.18.37.28.82.42 1.36.42a2.2 2.2 0 0 0 1.4-.45c.38-.3.67-.7.86-1.2.19-.5.29-1.07.29-1.7 0-.6-.1-1.16-.29-1.65a2.27 2.27 0 0 0-2.26-1.62 2.24 2.24 0 0 0-2.21 1.57 4.73 4.73 0 0 0-.29 1.7Zm8.42 4.36v-1.02l3.84-4.2c.45-.5.82-.93 1.11-1.3.3-.36.5-.7.65-1.03.14-.32.21-.66.21-1.02a1.9 1.9 0 0 0-1.09-1.75 2.58 2.58 0 0 0-1.13-.25c-.45 0-.84.1-1.17.28a1.9 1.9 0 0 0-.77.77 2.4 2.4 0 0 0-.27 1.16h-1.34a3.27 3.27 0 0 1 1.76-3 3.87 3.87 0 0 1 1.83-.44c.68 0 1.29.15 1.81.44a3.15 3.15 0 0 1 1.69 2.79c0 .43-.07.85-.23 1.26-.15.4-.42.86-.8 1.36-.37.5-.9 1.1-1.56 1.81l-2.61 2.8v.09h5.4V60h-7.33Z" fill="#333"/><path d="M384.77 49.61v-1.25h8.73v1.25h-3.66V60h-1.4V49.61h-3.67Zm12.1 10.6a3.5 3.5 0 0 1-1.5-.32 2.67 2.67 0 0 1-1.08-.91c-.26-.4-.4-.89-.4-1.46 0-.5.1-.9.3-1.21.2-.32.46-.56.8-.74.32-.18.69-.31 1.08-.4.4-.09.8-.16 1.21-.22l1.3-.15c.33-.04.57-.1.72-.19.15-.08.23-.23.23-.45v-.05c0-.56-.15-1-.46-1.3-.3-.31-.76-.47-1.38-.47a2.39 2.39 0 0 0-2.27 1.32l-1.27-.46a3.07 3.07 0 0 1 2.16-1.86 5.2 5.2 0 0 1 2.3-.08c.37.07.72.2 1.06.4.35.2.63.52.86.93.23.41.34.97.34 1.66V60h-1.34v-1.18h-.07a2.62 2.62 0 0 1-1.3 1.16c-.35.15-.78.22-1.29.22Zm.2-1.21c.54 0 .99-.1 1.35-.31a2.13 2.13 0 0 0 1.11-1.85v-1.23c-.05.07-.18.13-.37.2-.2.04-.41.1-.66.13a30.34 30.34 0 0 1-1.29.17c-.34.05-.67.12-.97.23-.3.1-.54.24-.73.44-.18.2-.27.47-.27.81 0 .47.17.82.51 1.06.35.23.8.35 1.33.35Zm6.43 1V48.36h1.34v4.3h.12l.4-.58c.19-.24.44-.45.77-.64s.78-.28 1.35-.28a3.46 3.46 0 0 1 3.26 2.11c.31.68.47 1.47.47 2.39 0 .92-.16 1.72-.47 2.4a3.42 3.42 0 0 1-3.23 2.12 2.8 2.8 0 0 1-1.35-.28 2.5 2.5 0 0 1-.78-.64 8.77 8.77 0 0 1-.42-.6h-.16V60h-1.3Zm1.32-4.36c0 .66.1 1.24.3 1.74.18.5.47.9.84 1.18.37.28.82.42 1.36.42a2.2 2.2 0 0 0 1.4-.45c.38-.3.67-.7.86-1.2.19-.5.29-1.07.29-1.7 0-.6-.1-1.16-.29-1.65a2.27 2.27 0 0 0-2.26-1.62 2.24 2.24 0 0 0-2.21 1.57 4.73 4.73 0 0 0-.29 1.7Zm16.85 4.52c-.75 0-1.42-.13-2-.39a3.44 3.44 0 0 1-1.4-1.07c-.34-.46-.53-1-.56-1.6h1.44c.03.37.15.69.38.96s.53.48.9.63c.36.15.77.22 1.21.22.5 0 .95-.09 1.33-.26.4-.18.7-.42.91-.73.22-.31.33-.67.33-1.08 0-.43-.1-.8-.31-1.13a2.1 2.1 0 0 0-.94-.77 3.5 3.5 0 0 0-1.5-.28h-.93V53.4h.93c.47 0 .87-.08 1.22-.25a1.89 1.89 0 0 0 1.13-1.77 2 2 0 0 0-.27-1.03 1.8 1.8 0 0 0-.74-.68 2.4 2.4 0 0 0-1.11-.25c-.4 0-.78.08-1.14.22-.35.15-.64.36-.86.63-.22.28-.34.6-.36 1h-1.37c.03-.62.21-1.15.55-1.61.35-.46.8-.82 1.36-1.08a4.37 4.37 0 0 1 3.7.05 3.09 3.09 0 0 1 1.6 2.68 2.62 2.62 0 0 1-1.9 2.64v.09c.72.12 1.3.43 1.71.93.41.5.62 1.12.62 1.86 0 .63-.17 1.2-.52 1.7-.34.5-.8.9-1.4 1.19a4.5 4.5 0 0 1-2.01.43Z" fill="#9E9E9E"/></svg>
